X: 90
T:*Mistress on the Floor, The
T:Woman of the House on the Floor, The
T:Bean an Tí ar Lár
M:C|
L:1/8
R:Reel
K:D
B[|AGFE D2FD|GEFE DB~B2|AGFE DEFD|E2cA BGEd|!
AGFE D2FD|GEFE Dd~d2|AGFE DEFD|E2cA BGEd|]!
cdec ~A3d|cdec AGEd|cdec ~A3F|E2cA BGEd|!
cdec ~A3d|cdec AGEd|cdeg f2ec|dBcA BcdB|]!
